resources/images/plate_close_hover.svg

<?xml version="1.0" encoding="UTF-8"?><svg id="a" xmlns="http://www.w3.org/2000/svg" width="43" height="43" viewBox="0 0 43 43"><rect x="1.5" y="1.5" width="40" height="40" rx="3.5" ry="3.5" style="fill:#e9e9e9;"/><path d="M38,2c1.65,0,3,1.35,3,3v33c0,1.65-1.35,3-3,3H5c-1.65,0-3-1.35-3-3V5c0-1.65,1.35-3,3-3h33M38,1H5C2.79,1,1,2.79,1,5v33c0,2.21,1.79,4,4,4h33c2.21,0,4-1.79,4-4V5c0-2.21-1.79-4-4-4h0Z" style="fill:#e14747;"/><line x1="10" y1="10" x2="33" y2="33" style="fill:none; stroke:#e14747; stroke-linecap:round; stroke-linejoin:round;"/><line x1="33" y1="10" x2="10" y2="33" style="fill:none; stroke:#e14747; stroke-linecap:round; stroke-linejoin:round;"/></svg>

<svg width="43" height="43" viewBox="0 0 43 43" fill="none" xmlns="http://www.w3.org/2000/svg">
<path d="M38 1.5H5C3.067 1.5 1.5 3.067 1.5 5V38C1.5 39.933 3.067 41.5 5 41.5H38C39.933 41.5 41.5 39.933 41.5 38V5C41.5 3.067 39.933 1.5 38 1.5Z" fill="#E9E9E9"/>
<path d="M38 2C39.65 2 41 3.35 41 5V38C41 39.65 39.65 41 38 41H5C3.35 41 2 39.65 2 38V5C2 3.35 3.35 2 5 2H38ZM38 1H5C2.79 1 1 2.79 1 5V38C1 40.21 2.79 42 5 42H38C40.21 42 42 40.21 42 38V5C42 2.79 40.21 1 38 1Z" fill="#E14747"/>
<path d="M10 10L33 33" stroke="#E14747" stroke-linecap="round" stroke-linejoin="round"/>
<path d="M33 10L10 33" stroke="#E14747" stroke-linecap="round" stroke-linejoin="round"/>
</svg>
